!!!OTL: Yiduo xianhua shui di kai
!!!ARE: Asia, China,ÿJiangxi, Ningdu
!! IV, 233
!!!SCT: C1676
!!!YEM: Copyright 1995, estate of Helmut Schaffrath.
**kern
*ICvox
*Ivox
!! Mixed meters:  2/4; 3/4
*M3/4
*k[f#c#]
*D:
{8ee
8ee
8ff#
8dd
=1
4.ee
8aa
=2
8r
4dd
16ee
16dd
=3
2b}
=4
{8b
8b
8b
16ee
16ff#
=5
4.dd
8ee
=6
16b
16a
16g
16a
16b
16dd
4.a}
=7
*M2/4
{4g
4a
=8
8g
16a
16g
4e
=9
8g
4e
8g
=10
8a
16g
16a
4e}
=11
{4dd
4ee
=12
8dd
16ee
16dd
4b
=13
*M3/4
8dd
4b
8ee
4dd
=14
8.dd
16b
16a
16b
4.dd}
==
!!!AGN: Shange, Ningniuzi
!!!AMT: irregular
!!!AIN: vox
!!!EED: Helmut Schaffrath
!!!EEV: 1.0
*-
